icons/profile-default-2.svg

<svg
  xmlns="http://www.w3.org/2000/svg"
  viewBox="0 0 500 500"
  width="500"
  height="500"
  fill="#ffffff"
>
  <path d="M250 71.48c-98.44 0-178.52 80.08-178.52 178.52S151.56 428.52 250 428.52 428.52 348.44 428.52 250 348.44 71.48 250 71.48zm116.85 263.87a11.27 11.27 0 0 1-9.7 5.57h-214.3a11.22 11.22 0 0 1-9.76-16.77l107.15-188.78a11.22 11.22 0 0 1 19.53 0l107.14 188.78a11.25 11.25 0 0 1-.06 11.2z" />
  <polygon points="272.55 265.52 252.56 245.54 232.91 265.19 204.95 237.24 157.23 321.32 342.77 321.32 297.14 240.93 272.55 265.52" />
  <path d="M250 5C114.69 5 5 114.69 5 250s109.69 245 245 245 245-109.69 245-245S385.31 5 250 5zm0 443.12c-109.25 0-198.12-88.87-198.12-198.12S140.75 51.88 250 51.88 448.12 140.75 448.12 250 359.24 448.12 250 448.12z" />
</svg>

<svg xmlns="http://www.w3.org/2000/svg" viewBox="0 0 500 500">
  <defs>
    <style>
      .cls-1 {
        fill: #7b7931;
      }
    </style>
  </defs>
  <g id="profile-default-2">
    <g>
      <path class="cls-1" d="M250,71.48C151.56,71.48,71.48,151.56,71.48,250S151.56,428.52,250,428.52,428.52,348.44,428.52,250,348.44,71.48,250,71.48ZM366.85,335.35a11.27,11.27,0,0,1-9.7,5.57H142.85a11.22,11.22,0,0,1-9.76-16.77L240.24,135.37a11.22,11.22,0,0,1,19.53,0L366.91,324.15A11.25,11.25,0,0,1,366.85,335.35Z"/>
      <polygon class="cls-1" points="272.55 265.52 252.56 245.54 232.91 265.19 204.95 237.24 157.23 321.32 342.77 321.32 297.14 240.93 272.55 265.52"/>
      <path class="cls-1" d="M250,5C114.69,5,5,114.69,5,250S114.69,495,250,495,495,385.31,495,250,385.31,5,250,5Zm0,443.12C140.75,448.12,51.88,359.25,51.88,250S140.75,51.88,250,51.88,448.12,140.75,448.12,250,359.24,448.12,250,448.12Z"/>
    </g>
  </g>
</svg>
